svg/UnitedNationsOCHA-Humanitarian/disaster_flood_icon_box.svg

<svg xmlns="http://www.w3.org/2000/svg" viewBox="0 0 32 32" enable-background="new 0 0 32 32"><path fill="#407cca" d="m25.6 0h-19.2c-3.52 0-6.4 2.88-6.4 6.4v19.2c0 3.52 2.88 6.4 6.4 6.4h19.2c3.521 0 6.4-2.88 6.4-6.4v-19.2c0-3.52-2.88-6.4-6.4-6.4m4.8 25.6c0 .138-.03.266-.041.4h-.758c-.51-.12-1.305-.688-1.602-1.6-.25-.763-.578-2.278.8-2.4 0 0-1.732-2.034-3.2.8-1.105 2.161-2.69 3.097-3.199 3.2h-.8c-.508-.12-1.303-.688-1.6-1.6-.25-.763-.58-2.278.8-2.4 0 0-1.737-2.034-3.2.8-1.112 2.161-1.887 3.097-2.399 3.2h-.8c-.508-.12-1.305-.688-1.6-1.6-.251-.763-.581-2.278.799-2.4 0 0-1.736-2.034-3.199.8-1.112 2.161-1.887 3.097-2.401 3.2h-.8c-.506-.12-1.303-.688-1.6-1.6-.249-.763-.583-2.278.8-2.4 0 0-1.739-2.034-3.2.8-.488.947-1.063 1.647-1.6 2.156v-4.802c.538-.508 1.112-1.207 1.6-2.154 1.461-2.834 3.2-.8 3.2-.8-1.383.122-1.048 1.638-.8 2.399.297.913 1.094 1.479 1.6 1.601h.798c.514-.104 1.289-1.041 2.401-3.2 1.462-2.834 3.199-.8 3.199-.8-1.38.122-1.05 1.638-.799 2.399.295.913 1.092 1.479 1.6 1.601h.8v-8.8l-.8.8-.801-.8 7.603-6.4 7.599 6.4-.8.8-.8-.8v4.115 4.685h3.2v4.4"/></svg>

<?xml version="1.0" encoding="utf-8"?>
<!-- Generator: Adobe Illustrator 16.0.3, SVG Export Plug-In . SVG Version: 6.00 Build 0)  -->
<!DOCTYPE svg PUBLIC "-//W3C//DTD SVG 1.1//EN" "http://www.w3.org/Graphics/SVG/1.1/DTD/svg11.dtd">
<svg version="1.1" id="Layer_1" xmlns="http://www.w3.org/2000/svg" xmlns:xlink="http://www.w3.org/1999/xlink" x="0px" y="0px"
	 width="32px" height="32px" viewBox="0 0 32 32" enable-background="new 0 0 32 32" xml:space="preserve">
<path fill="#407CCA" d="M25.6,0H6.4C2.88,0,0,2.88,0,6.4v19.2C0,29.12,2.88,32,6.4,32h19.2c3.521,0,6.4-2.88,6.4-6.4V6.4
	C32,2.88,29.12,0,25.6,0z M30.4,25.6c0,0.138-0.03,0.266-0.041,0.4h-0.758c-0.51-0.12-1.305-0.688-1.602-1.6
	c-0.25-0.763-0.578-2.278,0.8-2.4c0,0-1.732-2.034-3.2,0.8c-1.105,2.161-2.69,3.097-3.199,3.2H21.6c-0.508-0.12-1.303-0.688-1.6-1.6
	c-0.25-0.763-0.58-2.278,0.8-2.4c0,0-1.737-2.034-3.2,0.8c-1.112,2.161-1.887,3.097-2.399,3.2h-0.8c-0.508-0.12-1.305-0.688-1.6-1.6
	c-0.251-0.763-0.581-2.278,0.799-2.4c0,0-1.736-2.034-3.199,0.8c-1.112,2.161-1.887,3.097-2.401,3.2H7.2
	c-0.506-0.12-1.303-0.688-1.6-1.6c-0.249-0.763-0.583-2.278,0.8-2.4c0,0-1.739-2.034-3.2,0.8c-0.488,0.947-1.063,1.647-1.6,2.156
	v-4.802C2.138,19.646,2.712,18.947,3.2,18c1.461-2.834,3.2-0.8,3.2-0.8c-1.383,0.122-1.048,1.638-0.8,2.399
	c0.297,0.913,1.094,1.479,1.6,1.601h0.798c0.514-0.104,1.289-1.041,2.401-3.2c1.462-2.834,3.199-0.8,3.199-0.8
	c-1.38,0.122-1.05,1.638-0.799,2.399c0.295,0.913,1.092,1.479,1.6,1.601h0.8v-8.8l-0.8,0.8l-0.801-0.8L21.201,6l7.599,6.4L28,13.2
	l-0.8-0.8v4.115V21.2h3.2V25.6z"/>
</svg>
